svg/misc/grapes.svg

<svg width="448" height="512" viewBox="0 0 448 512" fill="none" xmlns="http://www.w3.org/2000/svg">
<g clip-path="url(#clip0)">
<path d="M6 10.8089C11.12 32.9955 18.4681 50.4889 28.0444 63.2889C37.6207 76.0889 49.1407 84.7645 62.6044 89.3156C76.0682 93.8667 91.76 96.5689 109.68 97.4222C127.6 98.2756 147.369 97.9437 168.987 96.4267C180.554 95.8578 189.372 95.4785 195.44 95.2889C185.39 11.6622 122.243 -16.4978 6 10.8089Z" fill="black"/>
<path d="M152 184C152 147.315 179.436 117.038 214.909 112.569C215.884 104.213 218.591 84.0877 223.031 74.0978C228.72 61.2978 236.4 50.3941 246.071 41.3867C255.742 32.3793 267.167 24.7941 280.347 18.6311C293.526 12.4681 307.511 7.86962 322.302 4.83554C337.093 1.80147 352.643 0.18963 368.951 0V28.4444C346.006 28.8237 325.336 31.9526 306.942 37.8311C288.548 43.7096 273.046 53.3807 260.436 66.8444C249.845 78.1515 243.1 105.575 241.211 114.07C272.664 121.785 296 150.167 296 184C296 223.765 263.764 256 224 256C184.236 256 152 223.765 152 184Z" fill="black"/>
<path d="M80 312C80 303.555 81.454 295.449 84.1254 287.92C110.436 286.893 134.238 276.093 152 259.047C164.145 270.702 179.114 279.438 195.778 284.125C193.316 292.997 192 302.345 192 312C192 329.858 196.501 346.664 204.43 361.347C191.299 375.293 172.666 384 152 384C112.235 384 80 351.765 80 312Z" fill="black"/>
<path d="M312.717 238.3C322.411 222.495 328 203.9 328 184C328 164.1 322.411 145.506 312.717 129.701C325.366 118.677 341.903 112 360 112C399.765 112 432 144.236 432 184C432 223.765 399.765 256 360 256C341.903 256 325.366 249.324 312.717 238.3Z" fill="black"/>
<path d="M88 112C106.097 112 122.634 118.677 135.283 129.701C125.589 145.506 120 164.1 120 184C120 203.9 125.589 222.495 135.283 238.3C122.634 249.324 106.097 256 88 256C48.2355 256 16 223.765 16 184C16 144.236 48.2355 112 88 112Z" fill="black"/>
<path d="M156.125 415.92C153.454 423.449 152 431.555 152 440C152 479.765 184.236 512 224 512C263.764 512 296 479.765 296 440C296 431.555 294.546 423.449 291.875 415.92C265.564 414.894 241.762 404.093 224 387.047C206.238 404.093 182.436 414.893 156.125 415.92Z" fill="black"/>
<path d="M360 292C361.727 292 363.444 291.958 365.15 291.875C367.005 298.262 368 305.015 368 312C368 351.765 335.764 384 296 384C256.236 384 224 351.765 224 312C224 303.555 225.454 295.449 228.125 287.92C251.434 287.01 272.773 278.43 289.689 264.632C308.202 281.627 332.889 292 360 292Z" fill="black"/>
</g>
<defs>
<clipPath id="clip0">
<rect width="448" height="512" fill="white"/>
</clipPath>
</defs>
</svg>

<svg width="448" height="512" viewBox="0 0 448 512" version="1.1" xmlns="http://www.w3.org/2000/svg"><path fill="currentColor" d="M156.125,415.92c-2.671,7.529 -4.125,15.635 -4.125,24.08c0,39.765 32.236,72 72,72c39.764,0 72,-32.235 72,-72c0,-8.445 -1.454,-16.551 -4.125,-24.08c-26.311,-1.026 -50.113,-11.827 -67.875,-28.873c-17.762,17.046 -41.564,27.846 -67.875,28.873Zm-76.125,-103.92c0,-8.445 1.454,-16.551 4.125,-24.08c26.311,-1.027 50.113,-11.827 67.875,-28.873c12.145,11.655 27.114,20.391 43.778,25.078c-2.462,8.872 -3.778,18.22 -3.778,27.875c0,17.858 4.501,34.664 12.43,49.347c-13.131,13.946 -31.764,22.653 -52.43,22.653c-39.765,0 -72,-32.235 -72,-72Zm280,-20c1.727,0 3.444,-0.042 5.15,-0.125c1.855,6.387 2.85,13.14 2.85,20.125c0,39.765 -32.236,72 -72,72c-39.764,0 -72,-32.235 -72,-72c0,-8.445 1.454,-16.551 4.125,-24.08c23.309,-0.91 44.648,-9.49 61.564,-23.288c18.513,16.995 43.2,27.368 70.311,27.368Zm-272,-180c18.097,0 34.634,6.677 47.283,17.701c-9.694,15.805 -15.283,34.399 -15.283,54.299c0,19.9 5.589,38.495 15.283,54.3c-12.649,11.024 -29.186,17.7 -47.283,17.7c-39.765,0 -72,-32.235 -72,-72c0,-39.764 32.235,-72 72,-72Zm224.717,126.3c9.694,-15.805 15.283,-34.4 15.283,-54.3c0,-19.9 -5.589,-38.494 -15.283,-54.299c12.649,-11.024 29.186,-17.701 47.283,-17.701c39.765,0 72,32.236 72,72c0,39.765 -32.235,72 -72,72c-18.097,0 -34.634,-6.676 -47.283,-17.7Zm-160.717,-54.3c0,-36.685 27.436,-66.962 62.909,-71.431c0.975,-8.356 3.682,-28.481 8.122,-38.471c5.689,-12.8 13.369,-23.704 23.04,-32.711c9.671,-9.008 21.096,-16.593 34.276,-22.756c13.179,-6.163 27.164,-10.761 41.955,-13.795c14.791,-3.035 30.341,-4.646 46.649,-4.836l0,28.444c-22.945,0.38 -43.615,3.509 -62.009,9.387c-18.394,5.879 -33.896,15.55 -46.506,29.013c-10.591,11.307 -17.336,38.731 -19.225,47.226c31.453,7.715 54.789,36.097 54.789,69.93c0,39.765 -32.236,72 -72,72c-39.764,0 -72,-32.235 -72,-72Zm-146,-173.191c5.12,22.187 12.468,39.68 22.044,52.48c9.577,12.8 21.097,21.475 34.56,26.027c13.464,4.551 29.156,7.253 47.076,8.106c17.92,0.854 37.689,0.522 59.307,-0.995c11.567,-0.569 20.385,-0.948 26.453,-1.138c-10.05,-83.627 -73.197,-111.787 -189.44,-84.48Z"></path></svg>
